src/svg/logo-yen.svg

<svg xmlns="http://www.w3.org/2000/svg" viewBox="0 0 512 512"><path d="M448 32h-80L256 253.128 144 32H64l112.368 208H128v48h73.564L216 319v17h-88v48h88v96h80v-96h88v-48h-88v-17l14.891-31H384v-48h-48.289L448 32z"/></svg>

<svg xmlns="http://www.w3.org/2000/svg" width="512" height="512" viewBox="0 0 512 512"><title>ionicons-v5_logos</title><path d="M448,32H368L256,253.13,144,32H64L176.37,240H128v48h73.56L216,319v17H128v48h88v96h80V384h88V336H296V319l14.89-31H384V240H335.71Z"/></svg>
